brandFactory_export/2.Regular/Autentificacion_2Regular.svg

<?xml version="1.0" encoding="UTF-8"?>
<svg width="24px" height="24px" viewBox="0 0 24 24" version="1.1" xmlns="http://www.w3.org/2000/svg" xmlns:xlink="http://www.w3.org/1999/xlink">
    <title>2.Regular/Autentificacion_2Regular</title>
    <g id="Symbols" stroke="none" stroke-width="1" fill="none" fill-rule="evenodd">
        <g id="2.Regular/Autentificacion_2Regular" fill="#5CB615" fill-rule="nonzero">
            <path d="M6.85042017,16.3092437 C7.11932773,16.0436975 7.54957983,16.0436975 7.81848739,16.3092437 C8.08067227,16.5680672 8.08739496,16.9915966 7.82521008,17.2571429 L7.81848739,17.2638655 L4.90420168,20.1445378 C4.63529412,20.4067227 4.20504202,20.4067227 3.93613445,20.1445378 L2.62857143,18.8504202 C2.36638655,18.5915966 2.35966387,18.1680672 2.61848739,17.9058824 L2.62857143,17.8957983 C2.89747899,17.6302521 3.32773109,17.6302521 3.59663866,17.8957983 L4.42016807,18.7092437 L6.85042017,16.3092437 L6.85042017,16.3092437 Z M15.4588235,11.3411765 C15.9966387,10.8336134 16.2655462,10.0134454 16.2655462,8.89747899 C16.2655462,7.78151261 15.9932773,6.95798319 15.4554622,6.44705882 C14.9344538,5.95294118 14.1176471,5.70084034 13.0285714,5.70084034 C11.9394958,5.70084034 11.1260504,5.95294118 10.6084034,6.44705882 C10.0773109,6.95798319 9.80504202,7.78151261 9.80504202,8.89747899 C9.80504202,10.0134454 10.0739496,10.8369748 10.6084034,11.3411765 C11.1226891,11.8319328 11.9394958,12.0840336 13.0285714,12.0840336 C14.1210084,12.0840336 14.9378151,11.8319328 15.4588235,11.3411765 Z M13.0285714,4.25546218 C14.5109244,4.25546218 15.6705882,4.64201681 16.4705882,5.40840336 C17.3042017,6.20168067 17.7277311,7.37815126 17.7277311,8.90084034 C17.7277311,10.4235294 17.3042017,11.5966387 16.4705882,12.389916 C15.6705882,13.1462185 14.5109244,13.5327731 13.0285714,13.5327731 C11.5462185,13.5327731 10.389916,13.1495798 9.58991597,12.3865546 C8.75966387,11.5966387 8.3394958,10.4235294 8.3394958,8.90084034 C8.3394958,7.37815126 8.75966387,6.20168067 9.58991597,5.40840336 C10.389916,4.64201681 11.5462185,4.25546218 13.0285714,4.25546218 Z M21.6201681,14.7596639 C22.0705882,12.194958 22.1378151,6.63865546 22.1579832,4.57142857 C20.0672269,4.65882353 18.7764706,3.83865546 17.5462185,3.02857143 C16.3092437,2.21848739 15.1361345,1.45546218 13.0386555,1.44537815 L13.0285714,1.44537815 C10.9411765,1.44537815 9.76806723,2.21848739 8.52773109,3.02857143 C7.27731092,3.8487395 5.97983193,4.6789916 3.91932773,4.58151261 C3.92941176,6.23193277 3.97983193,10.0907563 4.23193277,12.887395 C4.58151261,12.8403361 4.93445378,12.8168067 5.28739496,12.8201681 C7.38487395,12.8201681 8.93781513,13.4756303 9.79831933,14.8470588 C9.91596639,14.8369748 10.0436975,14.8369748 10.1680672,14.8369748 L15.8890756,14.8369748 C17.8319328,14.8369748 19.4453782,15.4352941 20.5478992,16.5747899 C20.5781513,16.605042 20.6084034,16.6352941 20.6453782,16.6823529 C21.1529412,16.0302521 21.512605,15.3848739 21.6201681,14.7596639 L21.6201681,14.7596639 Z M13.0386555,22.1008403 C14.6789916,21.3008403 17.6571429,19.610084 19.6403361,17.7411765 C19.5798319,17.6739496 19.5327731,17.6168067 19.492437,17.5764706 C18.6722689,16.7294118 17.4218487,16.2857143 15.8890756,16.2857143 L10.3798319,16.2857143 C10.507563,16.8067227 10.5747899,17.394958 10.5747899,18.0504202 C10.5747899,19.005042 10.4403361,19.8252101 10.1546218,20.5109244 C11.405042,21.2705882 12.5176471,21.8386555 13.0386555,22.1008403 L13.0386555,22.1008403 Z M5.28403361,21.8285714 C7.9697479,21.8285714 9.11260504,20.6991597 9.11260504,18.0470588 C9.11260504,15.4016807 7.9697479,14.2655462 5.28403361,14.2655462 C2.60504202,14.2655462 1.46554622,15.405042 1.46554622,18.0470588 C1.46554622,20.702521 2.60504202,21.8285714 5.28403361,21.8285714 Z M23.6236152,3.77142857 C23.6236152,4.10084034 23.6436975,11.7109244 23.0655462,14.9983193 C22.3058824,19.3378151 13.7109244,23.3815126 13.3478992,23.5529412 C13.2504202,23.6 13.1428571,23.6235294 13.0352941,23.6201681 C12.9277311,23.6235294 12.8201681,23.6 12.7226891,23.5529412 C12.6554622,23.5260504 11.1966387,22.8403361 9.42184874,21.7512605 C8.52436975,22.7831933 7.1092437,23.2739496 5.28067227,23.2739496 C1.94285714,23.2773109 0,21.6168067 0,18.0470588 C0,15.4991597 0.994957983,13.9260504 2.78319328,13.2336134 C2.43361345,9.54957983 2.45042017,4.01008403 2.45042017,3.77142857 C2.45042017,3.54957983 2.54789916,3.34789916 2.72268908,3.21008403 C2.89747899,3.06890756 3.12941176,3.01512605 3.34789916,3.06554622 C5.33109244,3.37478992 6.38319328,2.68907563 7.71428571,1.82184874 C9.01512605,0.974789916 10.497479,0 13.0285714,0 L13.0386555,0 C15.5798319,0.0100840336 17.0521008,0.974789916 18.3596639,1.82184874 C19.6773109,2.68907563 20.7327731,3.37478992 22.7361345,3.06554622 C22.9512605,3.03865546 23.1865546,3.09579832 23.3411765,3.2302521 C23.5058824,3.36470588 23.6236152,3.55966387 23.6236152,3.77142857 Z" id="Autentificacion_2Regular"></path>
        </g>
    </g>
</svg>

<svg width="24" height="24" viewBox="0 0 24 24" xmlns="http://www.w3.org/2000/svg"><path d="M6.85 16.31a.688.688 0 01.968 0 .67.67 0 01.007.947l-.007.007-2.914 2.88a.694.694 0 01-.968 0L2.63 18.85a.669.669 0 01-.01-.944l.01-.01a.688.688 0 01.968 0l.823.813 2.43-2.4zm8.609-4.969c.538-.507.807-1.328.807-2.444 0-1.115-.273-1.939-.81-2.45-.522-.494-1.338-.746-2.427-.746-1.09 0-1.903.252-2.42.746-.532.511-.804 1.335-.804 2.45 0 1.116.269 1.94.803 2.444.515.49 1.331.743 2.42.743 1.093 0 1.91-.252 2.43-.743zm-2.43-7.086c1.482 0 2.642.387 3.442 1.153.833.794 1.257 1.97 1.257 3.493s-.424 2.696-1.257 3.489c-.8.756-1.96 1.143-3.442 1.143-1.483 0-2.64-.383-3.44-1.146-.83-.79-1.25-1.963-1.25-3.486 0-1.523.42-2.7 1.25-3.493.8-.766 1.957-1.153 3.44-1.153zM21.62 14.76c.45-2.565.518-8.121.538-10.189-2.09.088-3.382-.732-4.612-1.542-1.237-.81-2.41-1.574-4.507-1.584h-.01c-2.088 0-3.26.773-4.501 1.584-1.25.82-2.548 1.65-4.609 1.553.01 1.65.06 5.509.313 8.305.35-.047.702-.07 1.055-.067 2.098 0 3.65.656 4.511 2.027.118-.01.246-.01.37-.01h5.721c1.943 0 3.556.598 4.659 1.738.03.03.06.06.097.107.508-.652.868-1.297.975-1.922zM13.04 22.1c1.64-.8 4.618-2.49 6.601-4.359-.06-.067-.107-.124-.148-.165-.82-.847-2.07-1.29-3.603-1.29h-5.51c.129.52.196 1.109.196 1.764 0 .955-.135 1.775-.42 2.46 1.25.76 2.363 1.329 2.884 1.59zm-7.755-.271c2.686 0 3.829-1.13 3.829-3.782 0-2.645-1.143-3.781-3.829-3.781-2.679 0-3.818 1.139-3.818 3.781 0 2.656 1.139 3.782 3.818 3.782zM23.624 3.77c0 .33.02 7.94-.558 11.227-.76 4.34-9.355 8.384-9.718 8.555a.673.673 0 01-.313.067.673.673 0 01-.312-.067c-.068-.027-1.526-.713-3.301-1.802-.898 1.032-2.313 1.523-4.141 1.523C1.943 23.277 0 21.617 0 18.047c0-2.548.995-4.12 2.783-4.813C2.433 9.55 2.45 4.01 2.45 3.77c0-.221.098-.423.273-.56a.735.735 0 01.625-.145c1.983.309 3.035-.377 4.366-1.244C9.015.975 10.497 0 13.03 0h.01c2.54.01 4.013.975 5.32 1.822 1.318.867 2.374 1.553 4.377 1.244.215-.027.45.03.605.164.165.135.283.33.283.541z" fill="#5CB615" fill-rule="nonzero"/></svg>
